assets/svg/icons_wallet_off.svg

<svg width="24" height="24" viewBox="0 0 24 24" fill="none" xmlns="http://www.w3.org/2000/svg">
<path d="M18.3491 11.9995C18.3491 12.5202 17.9431 12.9424 17.4421 12.9424C16.9412 12.9424 16.5352 12.5202 16.5352 11.9995C16.5352 11.4788 16.9412 11.0566 17.4421 11.0566C17.9431 11.0566 18.3491 11.4788 18.3491 11.9995Z" fill="#9A9A9A"/>
<path fill-rule="evenodd" clip-rule="evenodd" d="M10.1349 3.75H12.9581C14.625 3.74998 15.9452 3.74997 16.9784 3.89439C18.0417 4.043 18.9025 4.35614 19.5812 5.06174C20.4196 5.93331 20.6868 7.10057 20.7838 8.61522C21.3073 8.85472 21.7027 9.36123 21.7462 10.0028C21.7501 10.0596 21.75 10.1208 21.75 10.1775C21.75 10.1826 21.75 10.1877 21.75 10.1928V13.8072C21.75 13.8123 21.75 13.8174 21.75 13.8225C21.75 13.8792 21.7501 13.9404 21.7462 13.9972C21.7027 14.6388 21.3073 15.1453 20.7838 15.3848C20.6868 16.8995 20.4196 18.0667 19.5812 18.9383C18.9025 19.6438 18.0417 19.957 16.9784 20.1056C15.9452 20.25 14.625 20.25 12.9581 20.25H10.1349C8.46808 20.25 7.14785 20.25 6.11461 20.1056C5.05125 19.957 4.19058 19.6438 3.51182 18.9383C2.83308 18.2327 2.53185 17.3379 2.38889 16.2325C2.24997 15.1584 2.24998 13.786 2.25 12.0532V11.9468C2.24998 10.214 2.24997 8.84161 2.38889 7.7675C2.53185 6.66207 2.83308 5.76735 3.51182 5.06174C4.19058 4.35614 5.05125 4.043 6.11461 3.89439C7.14785 3.74997 8.46807 3.74998 10.1349 3.75ZM19.4081 15.5357H17.6512C15.7055 15.5357 14.0407 14.0011 14.0407 12C14.0407 9.99884 15.7055 8.46429 17.6512 8.46429H19.4081C19.3049 7.19949 19.0713 6.53183 18.6192 6.06179C18.2354 5.66277 17.7096 5.42359 16.7972 5.29606C15.8651 5.16579 14.6364 5.16429 12.907 5.16429H10.186C8.4566 5.16429 7.22795 5.16579 6.29589 5.29606C5.38339 5.42359 4.85766 5.66277 4.47382 6.06179C4.08998 6.46082 3.8599 7.00735 3.73722 7.95594C3.61191 8.92488 3.61047 10.2022 3.61047 12C3.61047 13.7978 3.61191 15.0751 3.73722 16.0441C3.8599 16.9926 4.08998 17.5392 4.47382 17.9382C4.85766 18.3372 5.38339 18.5764 6.29589 18.7039C7.22795 18.8342 8.4566 18.8357 10.186 18.8357H12.907C14.6364 18.8357 15.8651 18.8342 16.7972 18.7039C17.7096 18.5764 18.2354 18.3372 18.6192 17.9382C19.0713 17.4682 19.3049 16.8006 19.4081 15.5357ZM20.0934 9.87879C20.075 9.87858 20.0509 9.87857 20.0116 9.87857H17.6512C16.3602 9.87857 15.4012 10.8768 15.4012 12C15.4012 13.1232 16.3602 14.1214 17.6512 14.1214H20.0116C20.0509 14.1214 20.075 14.1214 20.0934 14.1212C20.1047 14.1211 20.1107 14.121 20.1135 14.1208L20.1155 14.1207C20.3026 14.1089 20.3829 13.9777 20.3891 13.8988C20.3891 13.8988 20.3893 13.8929 20.3894 13.8844C20.3895 13.8676 20.3895 13.8454 20.3895 13.8072V10.1928C20.3895 10.1546 20.3895 10.1324 20.3894 10.1156C20.3893 10.1071 20.3891 10.1012 20.3891 10.1012C20.3829 10.0223 20.3026 9.89111 20.1155 9.87929C20.1155 9.87929 20.1111 9.87898 20.0934 9.87879ZM7.46512 8.46429C7.8408 8.46429 8.14535 8.78089 8.14535 9.17143V14.8286C8.14535 15.2191 7.8408 15.5357 7.46512 15.5357C7.08944 15.5357 6.78488 15.2191 6.78488 14.8286V9.17143C6.78488 8.78089 7.08944 8.46429 7.46512 8.46429Z" fill="#9A9A9A"/>
</svg>

<svg xmlns="http://www.w3.org/2000/svg" width="24" height="24" fill="none"><path fill="#9A9A9A" d="M18.35 12c0 .52-.407.942-.908.942-.5 0-.907-.422-.907-.943s.406-.942.907-.942.907.422.907.942"/><path fill="#9A9A9A" fill-rule="evenodd" d="M10.135 3.75h2.823c1.667 0 2.987 0 4.02.144 1.064.149 1.924.462 2.603 1.168.839.871 1.106 2.039 1.203 3.553.523.24.919.746.962 1.388q.005.087.004.175v3.644q.001.088-.004.175a1.64 1.64 0 0 1-.962 1.388c-.097 1.515-.364 2.682-1.203 3.553-.678.706-1.54 1.019-2.603 1.168-1.033.144-2.353.144-4.02.144h-2.823c-1.667 0-2.987 0-4.02-.144-1.064-.149-1.924-.462-2.603-1.168-.679-.705-.98-1.6-1.123-2.705-.139-1.075-.139-2.447-.139-4.18v-.106c0-1.733 0-3.105.139-4.18.143-1.105.444-2 1.123-2.705s1.54-1.019 2.603-1.168c1.033-.144 2.353-.144 4.02-.144m9.273 11.786h-1.757c-1.945 0-3.61-1.535-3.61-3.536s1.665-3.536 3.61-3.536h1.757c-.103-1.265-.337-1.932-.789-2.402-.384-.4-.91-.638-1.822-.766-.932-.13-2.16-.132-3.89-.132h-2.721c-1.73 0-2.958.002-3.89.132-.913.128-1.438.367-1.822.766s-.614.945-.737 1.894c-.125.969-.127 2.246-.127 4.044s.002 3.075.127 4.044c.123.949.353 1.495.737 1.894.384.4.91.638 1.822.766.932.13 2.16.132 3.89.132h2.721c1.73 0 2.958-.002 3.89-.132.913-.128 1.438-.367 1.822-.766.452-.47.686-1.137.79-2.402m.685-5.657h-2.441c-1.292 0-2.25.998-2.25 2.121s.958 2.121 2.25 2.121h2.464c.187-.012.267-.143.273-.222V10.1c-.006-.079-.086-.21-.273-.222zM7.465 8.464c.376 0 .68.317.68.707v5.658c0 .39-.304.707-.68.707a.694.694 0 0 1-.68-.707V9.17c0-.39.304-.707.68-.707" clip-rule="evenodd"/></svg>
